assets/images/icons/src/laptop.svg

<?xml version="1.0" encoding="utf-8"?>
<!-- Generated by IcoMoon.io -->
<!DOCTYPE svg PUBLIC "-//W3C//DTD SVG 1.1//EN" "http://www.w3.org/Graphics/SVG/1.1/DTD/svg11.dtd">
<svg version="1.1" xmlns="http://www.w3.org/2000/svg" xmlns:xlink="http://www.w3.org/1999/xlink" width="15" height="14" viewBox="0 0 15 14">
<path fill="#444444" d="M3.25 10q-0.516 0-0.883-0.367t-0.367-0.883v-5.5q0-0.516 0.367-0.883t0.883-0.367h8.5q0.516 0 0.883 0.367t0.367 0.883v5.5q0 0.516-0.367 0.883t-0.883 0.367h-8.5zM3 3.25v5.5q0 0.102 0.074 0.176t0.176 0.074h8.5q0.102 0 0.176-0.074t0.074-0.176v-5.5q0-0.102-0.074-0.176t-0.176-0.074h-8.5q-0.102 0-0.176 0.074t-0.074 0.176zM13.75 10.5h1.25v0.75q0 0.312-0.367 0.531t-0.883 0.219h-12.5q-0.516 0-0.883-0.219t-0.367-0.531v-0.75h13.75zM8.125 11.25q0.125 0 0.125-0.125t-0.125-0.125h-1.25q-0.125 0-0.125 0.125t0.125 0.125h1.25z"></path>
</svg>

<svg xmlns="http://www.w3.org/2000/svg" width="15" height="14" viewBox="0 0 15 14"><path fill="#444" d="M3.25 10q-.516 0-.883-.367T2 8.75v-5.5q0-.516.367-.883T3.25 2h8.5q.516 0 .883.367T13 3.25v5.5q0 .516-.367.883T11.75 10h-8.5zM3 3.25v5.5q0 .102.074.176T3.25 9h8.5q.102 0 .176-.074T12 8.75v-5.5q0-.102-.074-.176T11.75 3h-8.5q-.102 0-.176.074T3 3.25zm10.75 7.25H15v.75q0 .312-.367.531T13.75 12H1.25q-.516 0-.883-.219T0 11.25v-.75h13.75zm-5.625.75q.125 0 .125-.125T8.125 11h-1.25q-.125 0-.125.125t.125.125h1.25z"/></svg>
